X:128
T:Den Toppede H\o{}ne
R:Other
O:Denmark
M:4/4
K:G
d2 d2 BG Bd | BG Bd dc A2 | \
  d2 d2 BG Bd | dc AF G2 G2 :|*
|:B2 B2 GE E2 | c2 c2 AF F2 |\
  d2 d2 BG Bd | dc AF G2 G2 :|**
